cssgg/insert-before-o.svg

<svg
  width="24"
  height="24"
  viewBox="0 0 24 24"
  fill="none"
  xmlns="http://www.w3.org/2000/svg"
>
  <path
    d="M5 3C4.44772 3 4 2.55228 4 2C4 1.44772 4.44772 1 5 1H19C19.5523 1 20 1.44772 20 2C20 2.55228 19.5523 3 19 3H5Z"
    fill="currentColor"
  />
  <path
    d="M9 15C8.44772 15 8 14.5523 8 14C8 13.4477 8.44772 13 9 13H11V11C11 10.4477 11.4477 10 12 10C12.5523 10 13 10.4477 13 11V13H15C15.5523 13 16 13.4477 16 14C16 14.5523 15.5523 15 15 15H13V17C13 17.5523 12.5523 18 12 18C11.4477 18 11 17.5523 11 17V15H9Z"
    fill="currentColor"
  />
  <path
    fill-rule="evenodd"
    clip-rule="evenodd"
    d="M4 14C4 18.4183 7.58172 22 12 22C16.4183 22 20 18.4183 20 14C20 9.58172 16.4183 6 12 6C7.58172 6 4 9.58172 4 14ZM12 8C8.68629 8 6 10.6863 6 14C6 17.3137 8.68629 20 12 20C15.3137 20 18 17.3137 18 14C18 10.6863 15.3137 8 12 8Z"
    fill="currentColor"
  />
</svg>

<svg viewBox="0 0 24 24" xmlns="http://www.w3.org/2000/svg"><g><path d="M5 3c-.56 0-1-.45-1-1 0-.56.44-1 1-1h14c.55 0 1 .44 1 1 0 .55-.45 1-1 1H5Z"/><path d="M9 15c-.56 0-1-.45-1-1 0-.56.44-1 1-1h2v-2c0-.56.44-1 1-1 .55 0 1 .44 1 1v2h2c.55 0 1 .44 1 1 0 .55-.45 1-1 1h-2v2c0 .55-.45 1-1 1 -.56 0-1-.45-1-1v-2H9Z"/><path fill-rule="evenodd" d="M4 14c0 4.41 3.58 8 8 8 4.41 0 8-3.59 8-8 0-4.42-3.59-8-8-8 -4.42 0-8 3.58-8 8Zm8-6c-3.32 0-6 2.68-6 6 0 3.31 2.68 6 6 6 3.31 0 6-2.69 6-6 0-3.32-2.69-6-6-6Z"/></g></svg>
